X: 31141
T: COTILLION No. 16. LONG ISLAND SETT tune 1
C:
%R: jig
B: Elias Howe "The Musician's Companion" Part 3 1844 p.114 #1
S: http://imslp.org/wiki/The_Musician's_Companion_(Howe,_Elias)
Z: 2015 John Chambers <jc:trillian.mit.edu>
M: 6/8
L: 1/8
K: C
% - - - - - - - - - - - - - - - - - - - - - - - - - - - - -
G/F/ |\
EGc {d}cBA | Bdf fga | gec Adc | BcA G^F=F |\
EGc {d}cBA | Bdf fga | gec fdB | (d3 c2) H|]
d/e/ |\
fd/c/B/A/ Gcd | eg/f/e/d/ ceg | BA^c dfa | c2(d/c/) Bde |\
fef def | gfg d'ge | dag fed | cAG FE"^D.C."D |]
e |\
Ta2c' Te2a | Tc2e TA2c | EAc edc | (Tc3 B2) e |\
Tf3 T^g3 | a3 aec | Afd cdB | A2G FE"^D.C."D |]
% - - - - - - - - - - Dance description - - - - - - - - - -
%%begintext align
%% Ladies all cross hands,
%% round and back,
%% give other hand to partners,
%% all balance and turn partners,
%% &c.
%%endtext
% - - - - - - - - - - - - - - - - - - - - - - - - - - - - -
%%sep 1 1 300
